X:396
T: Shajicanange
N: C1898
O: China,Guangdong Guangzhou
S: II, 374]
R: Xiaodiao, Shangyunti]
M: 2/4
L: 1/16
K: G
G6A2 | B4A4 | G2F2E2D2 | G8 |
G6A2 | B2A2G2A2 | B8 |
d6e2 | d2e2B4 | A8 |
B6A2 | G2E2G2A2 | B8 |
A2B2A2G2 | E4G4 | B,4D4 | E8 |
D2B,2D2E2 | G8 |
A2d2B2A2 | G8 |
A2B2A2G2 | B,4D4 | E2D2E2G2 | D8

@@@ Tune index: 6951
